public/images/icons/apps.svg

<svg width="18" height="20" viewBox="0 0 18 20" fill="none" xmlns="http://www.w3.org/2000/svg">
<path d="M13.3332 11.3332H11.9999V6.66657H7.33325V5.33325H12.6665C12.8433 5.33325 13.0129 5.40349 13.1379 5.52851C13.263 5.65354 13.3332 5.8231 13.3332 5.99991V11.3332Z" fill="#000000"/>
<path d="M9.99994 14.6665H4.66666C4.48985 14.6665 4.32028 14.5962 4.19526 14.4712C4.07024 14.3462 4 14.1766 4 13.9998V8.66654C4 8.48973 4.07024 8.32016 4.19526 8.19514C4.32028 8.07012 4.48985 7.99988 4.66666 7.99988H9.99994C10.1767 7.99988 10.3463 8.07012 10.4713 8.19514C10.5964 8.32016 10.6666 8.48973 10.6666 8.66654V13.9998C10.6666 14.1766 10.5964 14.3462 10.4713 14.4712C10.3463 14.5962 10.1767 14.6665 9.99994 14.6665ZM5.33332 13.3332H9.33328V9.3332H5.33332V13.3332Z" fill="#000000"/>
<path d="M8.66658 8.60364e-08C8.54853 -5.98804e-05 8.43258 0.0312282 8.33058 0.0906659L0.330663 4.75729C0.230013 4.81602 0.146516 4.90011 0.0884971 5.00117C0.0304786 5.10224 -3.45023e-05 5.21675 2.92768e-08 5.33328V14.6665C-3.45023e-05 14.7831 0.0304786 14.8976 0.0884971 14.9986C0.146516 15.0997 0.230013 15.1838 0.330663 15.2425L8.33058 19.9091C8.43256 19.9686 8.54851 20 8.66658 20C8.78465 20 8.9006 19.9686 9.00258 19.9091L16.3358 15.6312L15.6638 14.4799L8.66658 18.5611L1.33332 14.2839V5.71661L8.66658 1.43865L15.9998 5.71594V10.6666H17.3332V5.33328C17.3332 5.21675 17.3027 5.10224 17.2447 5.00117C17.1866 4.90011 17.1031 4.81602 17.0025 4.75729L9.00258 0.0906659C8.90058 0.0312282 8.78463 -5.98804e-05 8.66658 8.60364e-08Z" fill="#000000"/>
</svg>

<svg xmlns="http://www.w3.org/2000/svg" width="18" height="20" fill="none"><path fill="#000" d="M13.333 11.333H12V6.667H7.333V5.333h5.333a.667.667 0 0 1 .667.667v5.333Z"/><path fill="#000" d="M10 14.666H4.667A.667.667 0 0 1 4 14V8.667A.667.667 0 0 1 4.667 8H10a.667.667 0 0 1 .667.667V14a.666.666 0 0 1-.667.666Zm-4.667-1.333h4v-4h-4v4Z"/><path fill="#000" d="M8.667 0a.667.667 0 0 0-.336.09l-8 4.667A.667.667 0 0 0 0 5.333v9.333a.666.666 0 0 0 .33.576l8 4.667a.667.667 0 0 0 .673 0l7.333-4.278-.672-1.151-6.997 4.081-7.334-4.277V5.717l7.334-4.278L16 5.716v4.95h1.333V5.334a.667.667 0 0 0-.33-.576l-8-4.666A.667.667 0 0 0 8.667 0Z"/></svg>
